public/images/group4Line.svg

<svg width="304" height="48" viewBox="0 0 304 48" fill="none" xmlns="http://www.w3.org/2000/svg">
<path d="M303.197 24.7515L291.655 25.0964L297.725 34.9195L303.197 24.7515ZM1.04541 24.7515C1.65078 25.5474 1.65064 25.5475 1.65077 25.5474C1.65116 25.5471 1.65154 25.5468 1.65233 25.5462C1.6539 25.545 1.65652 25.5431 1.66019 25.5403C1.66753 25.5347 1.67906 25.5261 1.69476 25.5143C1.72616 25.4909 1.77423 25.4551 1.83876 25.4077C1.9678 25.3129 2.16265 25.1715 2.42156 24.9882C2.93941 24.6216 3.71343 24.0877 4.72976 23.4247C6.76256 22.0985 9.76382 20.2564 13.6226 18.2042C21.3416 14.0989 32.4824 9.15778 46.1591 5.81954C73.4935 -0.852324 110.974 -1.12964 151.587 24.5211L152.655 22.8301C111.504 -3.16042 73.4475 -2.8998 45.6849 3.87658C31.813 7.26246 20.5156 12.273 12.6834 16.4384C8.76661 18.5215 5.71407 20.3945 3.63697 21.7496C2.59835 22.4272 1.8034 22.9754 1.266 23.3558C0.997291 23.546 0.792954 23.6943 0.654721 23.7959C0.585604 23.8466 0.533011 23.8857 0.497159 23.9125C0.479232 23.9259 0.465491 23.9363 0.455962 23.9435C0.451197 23.9471 0.447486 23.9499 0.444831 23.9519C0.443503 23.9529 0.442304 23.9538 0.44164 23.9543C0.440707 23.955 0.440037 23.9555 1.04541 24.7515ZM151.587 24.5211C217.668 66.2571 275.705 41.6793 296.025 30.3574L295.051 28.6103C275.015 39.7743 217.835 63.9974 152.655 22.8301L151.587 24.5211Z" fill="url(#paint0_linear_770_550)"/>
<defs>
<linearGradient id="paint0_linear_770_550" x1="1.04541" y1="46.9095" x2="259.786" y2="-84.485" gradientUnits="userSpaceOnUse">
<stop offset="0.00124224" stop-color="#E42BC8"/>
<stop offset="0.472448" stop-color="#4663FE"/>
<stop offset="1" stop-color="#1DCEF4"/>
</linearGradient>
</defs>
</svg>

<svg width="304" height="48" fill="none" xmlns="http://www.w3.org/2000/svg"><path d="m303.197 24.752-11.542.344 6.07 9.823 5.472-10.167zm-302.152 0 .606.795h.001l.008-.007.035-.026.144-.106c.129-.095.324-.236.583-.42.517-.366 1.291-.9 2.308-1.563 2.033-1.326 5.034-3.169 8.893-5.22A141.133 141.133 0 0 1 46.159 5.82C73.493-.852 110.974-1.13 151.587 24.52l1.068-1.69C111.504-3.16 73.448-2.9 45.685 3.876a143.138 143.138 0 0 0-33.002 12.561c-3.916 2.084-6.969 3.957-9.046 5.312a76.17 76.17 0 0 0-2.371 1.606 42.578 42.578 0 0 0-.769.556l-.041.032-.011.008-.003.002c-.001.001-.002.002.603.797zm150.542-.23c66.081 41.735 124.118 17.157 144.438 5.835l-.974-1.747c-20.036 11.164-77.216 35.387-142.396-5.78l-1.068 1.691z" fill="url(#a)"/><defs><linearGradient id="a" x1="1.045" y1="46.91" x2="259.786" y2="-84.485" gradientUnits="userSpaceOnUse"><stop offset=".001" stop-color="#E42BC8"/><stop offset=".472" stop-color="#4663FE"/><stop offset="1" stop-color="#1DCEF4"/></linearGradient></defs></svg>
